lib/healthicons/icons/solid/typography/G.svg

<svg fill="none" height="48" viewBox="0 0 48 48" width="48" xmlns="http://www.w3.org/2000/svg"><path clip-rule="evenodd" d="m33.4907 16.3891c-.7364.8233-2.0008.8937-2.824.1573-1.3306-1.1901-2.9584-2.0047-4.7158-2.3542-1.9398-.3859-3.9505-.1879-5.7777.569-1.8273.7569-3.3891 2.0386-4.4879 3.6831s-1.6853 3.5779-1.6853 5.5557.5865 3.9112 1.6853 5.5557 2.6606 2.9262 4.4879 3.6831c1.8272.7569 3.8379.9549 5.7777.5691 1.4738-.2932 2.8565-.9134 4.0491-1.8079v-6h-6c-1.1046 0-2-.8954-2-2s.8954-2 2-2h8c1.1046 0 2 .8954 2 2v8.9443c0 .5691-.2425 1.1113-.6667 1.4907-1.8627 1.6661-4.1416 2.8066-6.602 3.296-2.7158.5402-5.5307.2629-8.0889-.7967-2.5581-1.0596-4.7446-2.854-6.283-5.1563-1.5383-2.3023-2.3594-5.0091-2.3594-7.778s.8211-5.4757 2.3594-7.778c1.5384-2.3023 3.7249-4.0967 6.283-5.1563 2.5582-1.0596 5.3731-1.33688 8.0889-.7967 2.4604.4894 4.7393 1.6299 6.602 3.296.8233.7364.8938 2.0008.1574 2.8241z" fill="#333" fill-rule="evenodd"/></svg>

<svg width="48" height="48" viewBox="0 0 48 48" fill="none" xmlns="http://www.w3.org/2000/svg">
<path fill-rule="evenodd" clip-rule="evenodd" d="M33.4907 16.3891C32.7543 17.2124 31.4899 17.2828 30.6667 16.5464C29.3361 15.3563 27.7083 14.5417 25.9509 14.1922C24.0111 13.8063 22.0004 14.0043 20.1732 14.7612C18.3459 15.5181 16.7841 16.7998 15.6853 18.4443C14.5865 20.0888 14 22.0222 14 24C14 25.9778 14.5865 27.9112 15.6853 29.5557C16.7841 31.2002 18.3459 32.4819 20.1732 33.2388C22.0004 33.9957 24.0111 34.1937 25.9509 33.8079C27.4247 33.5147 28.8074 32.8945 30 32V26H24C22.8954 26 22 25.1046 22 24C22 22.8954 22.8954 22 24 22L32 22C33.1046 22 34 22.8954 34 24V32.9443C34 33.5134 33.7575 34.0556 33.3333 34.435C31.4706 36.1011 29.1917 37.2416 26.7313 37.731C24.0155 38.2712 21.2006 37.9939 18.6424 36.9343C16.0843 35.8747 13.8978 34.0803 12.3594 31.778C10.8211 29.4757 10 26.7689 10 24C10 21.2311 10.8211 18.5243 12.3594 16.222C13.8978 13.9197 16.0843 12.1253 18.6424 11.0657C21.2006 10.0061 24.0155 9.72882 26.7313 10.269C29.1917 10.7584 31.4706 11.8989 33.3333 13.565C34.1566 14.3014 34.2271 15.5658 33.4907 16.3891Z" fill="#333333"/>
</svg>
